X: 25
T: Castle Kelly
Z: UPipes & harp
S: https://thesession.org/tunes/21#setting50103
R: reel
M: 4/4
L: 1/8
K: Gmaj
G|:~A2 cA A2 cA | G2 EG G2 EG | A2 cA GAcd |egde cAAG |
A2 cA A2 cA | G2 EG G2 EG | A2 cA GA (3Bcd |1 egde cAAG :|2 egde cAAf ||
|: (3gfe dc dfed | cAGE G3 f| gedc d2 cd | eaag gc'ba |
gedc dfed | cAGE G2 EG | A2 GAcd |1 egde cA Af :|2 egde cA AG ||

